X:1
T:Title
%%score [ ( 1 2 ) ( 3 4 ) ]
L:1/8
Q:1/4=120
M:3/4
K:Eb
V:1 treble nm="S A"
V:2 treble 
V:3 bass nm="T B"
V:4 bass 
V:1
"^Eternity (77. 75)""^S. S. Wesley\n(1810-1876)""^Eliza Fanny Morris\n(1821-74)""^God of pity, God of grace" B4 c2 | %1
 c4 B2 | e4 A2 | (A4 G2) | F4 E2 | A4 G2 | c4 E2 | (E4 D2) | G4 F2 | E4 e2 | d4 c2 | B6 | E4 A2 | %13
 G4 F2 | E6 |] %15
V:2
 E4 C2 | F4 F2 | E4 E2 | E6 | C4 E2 | D4 E2 | (G2 F2) C2 | B,6 | B,4 D2 | E4 E2 | G4 A2 | E6 | %12
 E4 E2 | E4 D2 | E6 |] %15
V:3
"^1. God of pity, God of grace,\nWhen we humbly seek Thy face,\nBend from Heav’n, Thy dwelling place;\nHear, forgive, and save.\n\n2. When we in Thy temple meet,\nSpread our wants before Thy feet,\nPleading at Thy mercy seat,\nLook from Heav’n and save.\n\n3. When Thy love our hearts shall fill,\nAnd we long to do Thy will,\nTurning to Thy holy hill,\nLord, accept and save." G,4 G,2 | %1
 F,4 B,2 | (B,2 A,2) E2 | B,6 | C4 B,2 | B,4 B,2 | (B,2 A,2) G,2 | %7
"^4. Should we wander from Thy fold,\nAnd our love to Thee grow cold,\nWith a pitying eye behold;\nLord, forgive and save.\n\n5. Should the hand of sorrow press,\nEarthly care and want distress,\nMay our souls Thy peace possess;\nJesus, hear and save.\n\n6. And, whate’er our cry may be,\nWhen we lift our hearts to Thee,\nFrom our burden set us free;\nHear, forgive, and save." (G,4 F,2) | %8
 G,4 A,2 | G,4 C2 | E4 E2 | B,6 | G,4 C2 | B,4 A,2 | G,6 |] %15
V:4
 E,4 E,2 | D,4 D,2 | C,4 C,2 | B,,6 | A,4 G,2 | F,4 E,2 | A,,4 =A,,2 | B,,6 | E,4 B,,2 | C,4 C2 | %10
 B,4 A,2 | G,6 | C,4 A,,2 | B,,4 B,,2 | E,6 |] %15

